unum/images/guidelines-icon.svg

<?xml version="1.0" encoding="UTF-8"?>
<svg width="51px" height="74px" viewBox="0 0 51 74" version="1.1" xmlns="http://www.w3.org/2000/svg" xmlns:xlink="http://www.w3.org/1999/xlink">
    <!-- Generator: Sketch 43.2 (39069) - http://www.bohemiancoding.com/sketch -->
    <title>guidelines-icon</title>
    <desc>Created with Sketch.</desc>
    <defs>
        <polygon id="path-1" points="0 0.164446404 0 25.1915821 18.492991 25.1915821 18.492991 0.164446404 1.25165061e-20 0.164446404"></polygon>
        <polygon id="path-3" points="15.4713957 25.1918583 15.4713957 0.164693529 0.746509619 0.164693529 0.746509619 25.1918583 15.4713957 25.1918583"></polygon>
    </defs>
    <g id="Pages" stroke="none" stroke-width="1" fill="none" fill-rule="evenodd">
        <g id="Overview" transform="translate(-585.000000, -205.000000)">
            <g id="Hero-Banner" transform="translate(-28.000000, -25.000000)">
                <g id="Group-4" transform="translate(264.000000, 230.000000)">
                    <g id="guidelines-icon" transform="translate(349.000000, 0.000000)">
                        <g id="Group-3" transform="translate(0.000000, 11.394811)">
                            <mask id="mask-2" fill="white">
                                <use xlink:href="#path-1"></use>
                            </mask>
                            <g id="Clip-2"></g>
                            <path d="M8.21197523,0.748483582 C8.00971665,0.266066119 7.44819513,0.0359051165 6.96332868,0.237526155 L0.586180447,2.89174284 C0.102237554,3.09336388 -0.128651231,3.65311544 0.0726837894,4.1355329 L0.726560828,5.69326257 L2.76577057,4.84442879 C3.02806023,4.73487215 3.33190988,4.85915909 3.44181294,5.12154264 C3.55079244,5.38300554 3.4261125,5.68589742 3.16382284,5.79545405 L1.12368954,6.64428783 L2.15252996,9.10056606 L5.74515945,7.60544018 C6.00744911,7.49680419 6.31129875,7.62109113 6.42212537,7.88255403 C6.53110488,8.14401693 6.40550138,8.44782945 6.14321172,8.55646544 L2.55150578,10.0515913 L3.57942265,12.5078695 L5.61955595,11.6599564 C5.88276917,11.5503998 6.18661881,11.6746867 6.29652187,11.9361496 C6.40550138,12.1985332 6.27989788,12.501425 6.01853177,12.610061 L3.97839847,13.4598155 L5.0072389,15.9160937 L8.59986839,14.4209678 C8.86215805,14.3114112 9.16600769,14.4366187 9.27498719,14.6980816 C9.38581381,14.9595445 9.26021031,15.2624364 8.99792065,15.3719931 L5.40529116,16.8671189 L6.43413159,19.3233972 L8.47426489,18.4745634 C8.73655455,18.3650067 9.04040419,18.4902143 9.15123081,18.7516772 C9.26021031,19.0131401 9.13460681,19.316032 8.87231715,19.4255886 L6.83310741,20.2744224 L7.86194783,22.7307006 L11.4536538,21.2355748 C11.7159434,21.1269388 12.0207166,21.2512257 12.1296961,21.5126886 C12.2395992,21.7741515 12.1149192,22.077964 11.851706,22.1875207 L8.2600001,23.6826466 L8.89171181,25.1915821 L18.492991,25.1915821 L8.21197523,0.748483582 Z" id="Fill-1" fill="#D6D6D9" mask="url(#mask-2)"></path>
                        </g>
                        <g id="Group-6" transform="translate(35.095095, 11.394811)">
                            <mask id="mask-4" fill="white">
                                <use xlink:href="#path-3"></use>
                            </mask>
                            <g id="Clip-5"></g>
                            <path d="M14.1168174,8.87068125 C14.1140467,8.9848411 13.9727428,9.03639717 13.8970112,8.95077728 L12.6234287,7.52009648 C12.3796101,7.24574457 12.0194236,7.10304474 11.6527723,7.13434664 L9.74193667,7.29914192 C9.62833939,7.309269 9.56091987,7.17485498 9.63665139,7.09015573 L12.3916164,4.0419034 L12.5310732,4.00968086 L14.1426769,4.6504491 L14.2221027,4.76921217 L14.1168174,8.87068125 Z M14.1205116,0.415486642 L8.42309993,6.55710284 C8.2097587,6.78818449 8.038901,7.0560919 7.92253305,7.34793605 L0.746509619,25.1918583 L9.16840893,25.1918583 L15.1826,10.234155 C15.2998915,9.94231088 15.3626932,9.6311332 15.3663875,9.31627295 L15.4716728,0.952222101 C15.4799848,0.241484924 14.6044545,-0.106518512 14.1205116,0.415486642 L14.1205116,0.415486642 Z" id="Fill-4" fill="#D6D6D9" mask="url(#mask-4)"></path>
                        </g>
                        <path d="M30.8093377,21.1078814 L22.9720488,20.9633403 C22.9304888,25.8289439 23.0366976,31.2616643 23.2528095,36.5866692 L30.1757788,36.5866692 C30.4565396,31.3150616 30.6726515,25.9394212 30.8093377,21.1078814" id="Fill-7" fill="#D6D6D9"></path>
                        <path d="M23.0077903,18.2061036 L23.0040961,18.4206136 L23.2654622,18.4252169 L30.6086491,18.5614722 L30.8709388,18.5660754 L30.8755566,18.3515653 C32.4012697,17.0958069 33.4079448,15.1191842 33.4495047,12.8737335 C33.521542,9.00150476 29.014593,4.65882696 28.3884226,0.000368257605 C24.81057,3.42608463 20.7118323,8.76489925 20.639795,12.6362073 C20.5973114,14.8825787 21.5291786,16.8951065 23.0077903,18.2061036" id="Fill-9" fill="#D6D6D9"></path>
                        <path d="M5.6906697,65.767678 C5.6906697,70.3128975 9.38673737,73.9982355 13.9472526,73.9982355 L38.5867802,73.9982355 C43.1463719,73.9982355 46.8433631,70.3128975 46.8433631,65.767678 L46.8433631,39.3488774 L5.6906697,39.3488774 L5.6906697,65.767678 Z" id="Fill-11" fill="#D6D6D9"></path>
                    </g>
                </g>
            </g>
        </g>
    </g>
</svg>

<svg width="51" height="74" viewBox="0 0 51 74" xmlns="http://www.w3.org/2000/svg" xmlns:xlink="http://www.w3.org/1999/xlink"><title>guidelines-icon</title><defs><path id="a" d="M0 .164v25.028h18.493V.164H0z"/><path id="c" d="M15.471 25.192V.165H.747v25.027H15.47z"/></defs><g fill="none" fill-rule="evenodd"><g transform="translate(0 11.395)"><mask id="b" fill="#fff"><use xlink:href="#a"/></mask><path d="M8.212.748a.959.959 0 0 0-1.249-.51L.586 2.892a.954.954 0 0 0-.513 1.244l.654 1.557 2.039-.849a.518.518 0 0 1 .676.278.517.517 0 0 1-.278.673l-2.04.85L2.153 9.1l3.592-1.496a.521.521 0 0 1 .677.278.517.517 0 0 1-.279.673l-3.591 1.496 1.027 2.456 2.04-.848a.52.52 0 0 1 .678.276.517.517 0 0 1-.278.674l-2.04.85 1.028 2.456L8.6 14.421a.515.515 0 1 1 .398.951l-3.593 1.495 1.03 2.456 2.04-.848a.52.52 0 0 1 .676.277.517.517 0 0 1-.279.674l-2.039.848 1.029 2.457 3.592-1.495a.516.516 0 0 1 .398.952L8.26 23.683l.632 1.509h9.601L8.212.748z" fill="#D6D6D9" mask="url(#b)"/></g><g transform="translate(35.095 11.395)"><mask id="d" fill="#fff"><use xlink:href="#c"/></mask><path d="M14.117 8.87a.126.126 0 0 1-.22.08l-1.274-1.43a1.166 1.166 0 0 0-.97-.386L9.742 7.3a.126.126 0 0 1-.105-.209l2.755-3.048.14-.032 1.61.64.08.12-.105 4.1zM14.12.416L8.423 6.557a2.573 2.573 0 0 0-.5.79L.747 25.193h8.421l6.015-14.958c.117-.292.18-.603.183-.918l.106-8.364c.008-.71-.868-1.059-1.351-.537z" fill="#D6D6D9" mask="url(#d)"/></g><path d="M30.81 21.108l-7.838-.145c-.042 4.866.065 10.299.28 15.624h6.924c.28-5.272.497-10.648.633-15.48m-7.801-2.901l-.004.215.261.004 7.344.136.262.005.005-.214c1.525-1.256 2.532-3.233 2.574-5.478.072-3.872-4.435-8.215-5.062-12.874-3.577 3.426-7.676 8.765-7.748 12.636-.043 2.247.89 4.26 2.368 5.57M5.69 65.768c0 4.545 3.697 8.23 8.257 8.23h24.64c4.56 0 8.256-3.685 8.256-8.23v-26.42H5.691v26.42z" fill="#D6D6D9"/></g></svg>
